X: 38092
T: Splendid Isolation
R: reel
M: 4/4
K: Gdorian
|:(D/F/G)AF GdcA|G2AG FGAc|dAcA GABc|dggf ~g2ga|
bgag fdde|faeg fdcA|GBAG FGAc|1 dAcA ~G4:|2 dAcA ~G2(A/c/d)||
|:g2ag fd~d2|gfdc Acdc|AG~G2 Acdc|AG{A}GA F2(D/E/F)|
FGAF GdcA|G2AG FGAc|dg~g2 fgag|fdcA G4:|

